src/images/Icons/DarkBlue/ExternalLink.svg

<svg fill="none" height="24" viewBox="0 0 24 24" width="24" xmlns="http://www.w3.org/2000/svg"><g stroke="#2b3652" stroke-linecap="round" stroke-linejoin="round" stroke-miterlimit="10" stroke-width="3"><path d="m15 3h6v6"/><path d="m21 3-10 10"/><path d="m19 18v1c0 .5304-.2107 1.0391-.5858 1.4142s-.8838.5858-1.4142.5858h-12c-.53043 0-1.03914-.2107-1.41421-.5858-.37508-.3751-.58579-.8838-.58579-1.4142v-12c0-.53043.21071-1.03914.58579-1.41421.37507-.37508.88378-.58579 1.41421-.58579h1"/></g></svg>

<svg width="24" height="24" viewBox="0 0 24 24" fill="none" xmlns="http://www.w3.org/2000/svg">
<path d="M15 3H21V9" stroke="#2B3652" stroke-width="3" stroke-miterlimit="10" stroke-linecap="round" stroke-linejoin="round"/>
<path d="M21 3L11 13" stroke="#2B3652" stroke-width="3" stroke-miterlimit="10" stroke-linecap="round" stroke-linejoin="round"/>
<path d="M19 18V19C19 19.5304 18.7893 20.0391 18.4142 20.4142C18.0391 20.7893 17.5304 21 17 21H5C4.46957 21 3.96086 20.7893 3.58579 20.4142C3.21071 20.0391 3 19.5304 3 19V7C3 6.46957 3.21071 5.96086 3.58579 5.58579C3.96086 5.21071 4.46957 5 5 5H6" stroke="#2B3652" stroke-width="3" stroke-miterlimit="10" stroke-linecap="round" stroke-linejoin="round"/>
</svg>
